X:2
T:Yellow Tinker, The
T:Dick Cosgrove's Reel
S:from Altan, The Red Crow
D:Altan, The Red Crow (Green Linnet 1109)
N:transcribed by Alan Ng
Z: id:ng-reels-2 transcribed by Alan Ng (agng@students.wisc.edu) April 8, 1996
E:11
M:C|
K:ADor
\medskip
EAAG EGAG|EA A2 fded|EAAG EDEF|1 G2 BG cGBG:|2 GABd dBGB:|\
A2 eA fAeA|fAeA dBGB|1 A2 eA fAeA|d2 BG DGBd:|2 e3 f gfge|d2 BG DGBG:|**
\bigskip
